X: 3005
T: A Scotch tune in fashion
T: Peggy I must love ye
N: The 2nd title was handwritten above the tune.
%R: march
B: Henry Playford "Apollo's Banquet", London 1687 (5th Edition)
F: https://archive.org/details/apollosbanquetco01rugg
Z: 2017 John Chambers <jc:trillian.mit.edu>
M: C|
L: 1/8
K: G
% - - - - - - - - - -
D |\
E2G2 G3B | (AB)(AF) E3D |\
E2G2 (GA)(BG) | A4 G3 :: c |\
B2d2 d3e | (de)(dB) A3 G |
B2d2 d3e | =f2 (e/=f/g) e3d |\
d2 (e/f/g) d3B | A2=f2 A3B |\
D3E (GA)(BG) | A4 HG2 |]
% - - - - - - - - - -

%%sep 1 1 500
%%sep 1 1 500

